svg/Outline/dice.svg

<svg viewBox="0 0 24 24" xmlns="http://www.w3.org/2000/svg" width="24" height="24"><path d="M5.56 13.49c.43 0 .77.52.77 1.16S6 15.8 5.56 15.8c-.42 0-.77-.51-.77-1.15s.35-1.16.77-1.16m3.64-.54c.42 0 .76.52.76 1.16s-.34 1.15-.77 1.15c-.42 0-.77-.51-.77-1.15s.35-1.16.77-1.16m5.62 3.25c.43 0 .77.5.77 1.15s-.34 1.15-.77 1.15c-.42 0-.77-.51-.77-1.15s.35-1.16.77-1.16m3.63-2.7c.42 0 .77.52.77 1.16s-.35 1.15-.77 1.15-.77-.51-.77-1.15.34-1.16.77-1.16m-3.63-.54c.43 0 .77.52.77 1.16s-.34 1.15-.77 1.15c-.42 0-.77-.51-.77-1.15s.35-1.16.77-1.16m3.63-2.55c.42 0 .77.52.77 1.16s-.35 1.15-.77 1.15-.77-.51-.77-1.15.34-1.16.77-1.16M12 5.9c.64 0 1.16.34 1.16.76 0 .43-.52.77-1.16.77s-1.16-.34-1.16-.77c0-.42.52-.77 1.16-.77"/><path fill-rule="evenodd" d="M10.05 1.52c1.2-.7 2.7-.7 3.9 0l6.15 3.55a3.9 3.9 0 0 1 1.95 3.38v7.1a3.9 3.9 0 0 1-1.95 3.38l-6.15 3.55c-1.2.7-2.7.7-3.9 0L3.9 18.93a3.9 3.9 0 0 1-1.95-3.38v-7.1c0-1.4.74-2.68 1.95-3.38zM3.76 8.2l-.01.25v7.1c0 .75.4 1.45 1.05 1.82l6.15 3.55.15.08v-8.48zm9.14 4.32V21l.15-.08 6.15-3.55a2.1 2.1 0 0 0 1.05-1.82v-7.1l-.01-.25zm.15-9.44a2.1 2.1 0 0 0-2.1 0L4.8 6.63l-.08.05L12 10.96l7.28-4.28-.08-.05z" clip-rule="evenodd"/></svg>

<svg viewBox="0 0 24 24" xmlns="http://www.w3.org/2000/svg" width="24" height="24"><path d="M5.56 13.49c.43 0 .77.52.77 1.16S6 15.8 5.56 15.8c-.42 0-.77-.51-.77-1.15s.35-1.16.77-1.16m3.64-.54c.42 0 .76.52.76 1.16s-.34 1.15-.77 1.15c-.42 0-.77-.51-.77-1.15s.35-1.16.77-1.16m5.62 3.25c.43 0 .77.5.77 1.15s-.34 1.15-.77 1.15c-.42 0-.77-.51-.77-1.15s.35-1.16.77-1.16m3.63-2.7c.42 0 .77.52.77 1.16s-.35 1.15-.77 1.15-.77-.51-.77-1.15.34-1.16.77-1.16m-3.63-.54c.43 0 .77.52.77 1.16s-.34 1.15-.77 1.15c-.42 0-.77-.51-.77-1.15s.35-1.16.77-1.16m3.63-2.55c.42 0 .77.52.77 1.16s-.35 1.15-.77 1.15-.77-.51-.77-1.15.34-1.16.77-1.16M12 5.9c.64 0 1.16.34 1.16.76 0 .43-.52.77-1.16.77s-1.16-.34-1.16-.77c0-.42.52-.77 1.16-.77"/><path fill-rule="evenodd" d="M10.05 1.52c1.2-.7 2.7-.7 3.9 0l6.15 3.55a3.9 3.9 0 0 1 1.95 3.38v7.1a3.9 3.9 0 0 1-1.95 3.38l-6.15 3.55c-1.2.7-2.7.7-3.9 0L3.9 18.93a3.9 3.9 0 0 1-1.95-3.38v-7.1c0-1.4.74-2.68 1.95-3.38zM3.76 8.2L3.75 15.55C3.75 16.3 4.15 17 4.8 17.37L11.1 21L11.1 12.52ZM12.9 12.52L12.9 21L19.2 17.37A2.1 2.1 0 0 0 20.25 15.55L20.24 8.2ZM13.05 3.08A2.1 2.1 0 0 0 10.95 3.08L4.72 6.68L12 10.96L19.28 6.68L19.2 6.63Z" clip-rule="evenodd"/></svg>
